icons/svg/seamark_big/signal_station_additional.svg

<?xml version="1.0" encoding="UTF-8" standalone="no"?>
<svg
   xmlns:dc="http://purl.org/dc/elements/1.1/"
   xmlns:cc="http://creativecommons.org/ns#"
   xmlns:rdf="http://www.w3.org/1999/02/22-rdf-syntax-ns#"
   xmlns:svg="http://www.w3.org/2000/svg"
   xmlns="http://www.w3.org/2000/svg"
   xmlns:sodipodi="http://sodipodi.sourceforge.net/DTD/sodipodi-0.dtd"
   xmlns:inkscape="http://www.inkscape.org/namespaces/inkscape"
   width="1060"
   height="1060"
   id="svg2"
   version="1.1"
   inkscape:version="0.48.4 r9939"
   sodipodi:docname="signal_station_additional.svg">
  <defs
     id="defs13">
    <inkscape:path-effect
       effect="gears"
       id="path-effect3774"
       is_visible="true"
       teeth="6"
       phi="-1.2" />
    <inkscape:path-effect
       effect="bend_path"
       id="path-effect3772"
       is_visible="false"
       bendpath="m 95.790098,316.51174 c 144.429032,-206.42506 223.313032,-11.7428 339.548092,0"
       prop_scale="1.19"
       scale_y_rel="false"
       vertical="false"
       bendpath-nodetypes="cc" />
  </defs>
  <sodipodi:namedview
     pagecolor="#ffffff"
     bordercolor="#666666"
     borderopacity="1"
     objecttolerance="10"
     gridtolerance="10"
     guidetolerance="10"
     inkscape:pageopacity="0"
     inkscape:pageshadow="2"
     inkscape:window-width="1920"
     inkscape:window-height="1004"
     id="namedview11"
     showgrid="false"
     inkscape:zoom="0.57543862"
     inkscape:cx="779.13495"
     inkscape:cy="654.37525"
     inkscape:window-x="1680"
     inkscape:window-y="0"
     inkscape:window-maximized="1"
     inkscape:current-layer="svg2"
     inkscape:snap-object-midpoints="true"
     inkscape:snap-center="true" />
  <metadata
     id="metadata2975">image/svg+xmlen<rdf:RDF>
  <cc:Work
     rdf:about="">
    <dc:format>image/svg+xml</dc:format>
    <dc:type
       rdf:resource="http://purl.org/dc/dcmitype/StillImage" />
    <dc:title />
  </cc:Work>
</rdf:RDF>
</metadata>
  <path
     sodipodi:type="inkscape:offset"
     inkscape:radius="40.206188"
     inkscape:original="M 229.09375 467.5625 C 214.01418 467.56264 202.44864 470.89185 194.40625 477.59375 C 186.36382 484.29588 182.34374 493.88928 182.34375 506.34375 C 182.34374 516.28514 185.21618 524.19832 190.96875 530.0625 C 196.77714 535.92683 205.92703 540.19425 218.4375 542.875 L 230.9375 545.625 C 238.53305 547.30055 243.58041 549.19025 246.09375 551.3125 C 248.66277 553.43484 249.93742 556.46553 249.9375 560.375 C 249.93742 564.73134 248.05438 568.09182 244.3125 570.4375 C 240.57047 572.78323 235.19329 573.93752 228.15625 573.9375 C 221.23077 573.93752 214.01512 572.87233 206.53125 570.75 C 199.10316 568.57188 191.42404 565.36965 183.4375 561.125 L 183.4375 588.34375 C 191.42404 591.30381 199.3884 593.55456 207.375 595.0625 C 215.36151 596.57047 223.31922 597.3125 231.25 597.3125 C 248.0608 597.3125 260.56455 593.95202 268.71875 587.25 C 276.92862 580.49216 281.03115 570.23251 281.03125 556.4375 C 281.03115 545.93773 278.0829 537.85301 272.21875 532.15625 C 266.35439 526.45961 256.4691 522.19884 242.5625 519.40625 L 228.84375 516.65625 C 222.30923 515.31593 217.7632 513.71813 215.25 511.875 C 212.79255 509.97618 211.56246 507.35109 211.5625 504 C 211.56246 499.5321 213.40759 496.21615 217.09375 494.09375 C 220.77979 491.97155 226.48012 490.93759 234.1875 490.9375 C 239.99584 490.93759 246.18421 491.71755 252.71875 493.28125 C 259.25312 494.84515 265.94284 497.14711 272.8125 500.21875 L 272.8125 473.75 C 265.04924 471.68367 257.54168 470.16167 250.28125 469.15625 C 243.02066 468.09523 235.96324 467.56264 229.09375 467.5625 z M 345.03125 467.5625 C 329.95169 467.56264 318.38613 470.89185 310.34375 477.59375 C 302.30131 484.29588 298.28124 493.88928 298.28125 506.34375 C 298.28124 516.28514 301.15369 524.19832 306.90625 530.0625 C 312.71464 535.92683 321.86455 540.19425 334.375 542.875 L 346.875 545.625 C 354.47054 547.30055 359.51792 549.19025 362.03125 551.3125 C 364.60027 553.43484 365.87493 556.46553 365.875 560.375 C 365.87493 564.73134 364.02313 568.09182 360.28125 570.4375 C 356.53921 572.78323 351.13081 573.93752 344.09375 573.9375 C 337.16829 573.93752 329.98386 572.87233 322.5 570.75 C 315.0719 568.57188 307.36154 565.36965 299.375 561.125 L 299.375 588.34375 C 307.36154 591.30381 315.32592 593.55456 323.3125 595.0625 C 331.29903 596.57047 339.28798 597.3125 347.21875 597.3125 C 364.02956 597.3125 376.50205 593.95202 384.65625 587.25 C 392.86611 580.49216 396.96864 570.23251 396.96875 556.4375 C 396.96864 545.93773 394.0204 537.85301 388.15625 532.15625 C 382.29189 526.45961 372.4066 522.19884 358.5 519.40625 L 344.78125 516.65625 C 338.24675 515.31593 333.70071 513.71813 331.1875 511.875 C 328.73005 509.97618 327.53121 507.35109 327.53125 504 C 327.53121 499.5321 329.34511 496.21615 333.03125 494.09375 C 336.71731 491.97155 342.41764 490.93759 350.125 490.9375 C 355.93336 490.93759 362.12171 491.71755 368.65625 493.28125 C 375.19063 494.84515 381.88034 497.14711 388.75 500.21875 L 388.75 473.75 C 380.98673 471.68367 373.47918 470.16167 366.21875 469.15625 C 358.95817 468.09523 351.90075 467.56264 345.03125 467.5625 z "
     style="font-size:144px;font-style:normal;font-weight:bold;line-height:125%;letter-spacing:0px;word-spacing:0px;opacity:0.8731343;color:#000000;fill:#acd8f3;fill-opacity:1;fill-rule:nonzero;stroke:#a35151;stroke-width:0;stroke-linecap:round;stroke-linejoin:miter;stroke-miterlimit:4;stroke-opacity:1;stroke-dasharray:none;stroke-dashoffset:0;marker:none;visibility:visible;display:inline;overflow:visible;enable-background:accumulate;font-family:Sans;-inkscape-font-specification:Sans Bold"
     id="path3050"
     d="m 229.09375,427.34375 c -20.99709,1.9e-4 -42.8624,4.72928 -60.4375,19.375 -17.47604,14.56359 -26.53127,38.51862 -26.53125,59.625 -1e-5,10.79273 2.42849,22.50581 7.40625,33.1875 a 40.210209,40.210209 0 0 0 -6.3125,21.59375 l 0,27.21875 a 40.210209,40.210209 0 0 0 26.25,37.6875 c 9.92638,3.67902 20.07216,6.57418 30.4375,8.53125 10.40824,1.96523 20.90509,2.96875 31.34375,2.96875 18.18907,0 36.34987,-2.75559 52.59375,-12.15625 a 40.210209,40.210209 0 0 0 1.5625,0.65625 c 9.9264,3.67903 20.0722,6.57419 30.4375,8.53125 10.42702,1.96877 20.93634,2.96875 31.375,2.96875 22.16895,0 44.37076,-3.93287 62.96875,-19.21875 a 40.210209,40.210209 0 0 0 0.0312,-0.0312 c 18.55199,-15.27083 26.96858,-40.07756 26.96875,-61.84375 -1.4e-4,-13.36715 -3.49904,-28.27779 -11.28125,-40.90625 a 40.210209,40.210209 0 0 0 3.0625,-15.3125 l 0,-26.46875 a 40.210209,40.210209 0 0 0 -29.875,-38.84375 c -9.14039,-2.43288 -18.17225,-4.25525 -27.0625,-5.5 l 0,-0.0312 c -0.10431,-0.0152 -0.2082,-0.0162 -0.3125,-0.0312 -8.93923,-1.29214 -17.84364,-1.99982 -26.6875,-2 -17.24515,1.6e-4 -35.03782,3.28322 -50.59375,12.53125 a 40.210209,40.210209 0 0 0 -11.28125,-4.96875 c -9.1404,-2.43288 -18.17225,-4.25525 -27.0625,-5.5 l 0,-0.0312 c -0.10431,-0.0152 -0.2082,-0.0162 -0.3125,-0.0312 -8.93924,-1.29213 -17.84365,-1.99982 -26.6875,-2 z m -4,158.5 c 1.50507,0.725 1.71412,1.15747 0,0 z m 115.9375,0 c 1.50508,0.72502 1.71414,1.15749 0,0 z"
     transform="translate(0,-190)" />
  <path
     style="font-size:144px;font-style:normal;font-weight:bold;line-height:125%;letter-spacing:0px;word-spacing:0px;fill:#000000;fill-opacity:1;stroke:none;font-family:Sans;-inkscape-font-specification:Sans Bold"
     d="m 229.09523,277.57812 c -15.07957,1.4e-4 -26.64511,3.32935 -34.6875,10.03125 -8.04243,6.70213 -12.06251,16.29553 -12.0625,28.75 -10e-6,9.94139 2.87243,17.85457 8.625,23.71875 5.80839,5.86433 14.95828,10.13175 27.46875,12.8125 l 12.5,2.75 c 7.59555,1.67555 12.64291,3.56525 15.15625,5.6875 2.56902,2.12234 3.84367,5.15303 3.84375,9.0625 -8e-5,4.35634 -1.88312,7.71682 -5.625,10.0625 -3.74203,2.34573 -9.11921,3.50002 -16.15625,3.5 -6.92548,2e-5 -14.14113,-1.06517 -21.625,-3.1875 -7.42809,-2.17812 -15.10721,-5.38035 -23.09375,-9.625 l 0,27.21875 c 7.98654,2.96006 15.9509,5.21081 23.9375,6.71875 7.98651,1.50797 15.94422,2.25 23.875,2.25 16.8108,0 29.31455,-3.36048 37.46875,-10.0625 8.20987,-6.75784 12.3124,-17.01749 12.3125,-30.8125 -1e-4,-10.49977 -2.94835,-18.58449 -8.8125,-24.28125 -5.86436,-5.69664 -15.74965,-9.95741 -29.65625,-12.75 l -13.71875,-2.75 c -6.53452,-1.34032 -11.08055,-2.93812 -13.59375,-4.78125 -2.45745,-1.89882 -3.68754,-4.52391 -3.6875,-7.875 -4e-5,-4.4679 1.84509,-7.78385 5.53125,-9.90625 3.68604,-2.1222 9.38637,-3.15616 17.09375,-3.15625 5.80834,9e-5 11.99671,0.78005 18.53125,2.34375 6.53437,1.5639 13.22409,3.86586 20.09375,6.9375 l 0,-26.46875 c -7.76326,-2.06633 -15.27082,-3.58833 -22.53125,-4.59375 -7.26059,-1.06102 -14.31801,-1.59361 -21.1875,-1.59375 z m 115.9375,0 c -15.07956,1.4e-4 -26.64512,3.32935 -34.6875,10.03125 -8.04244,6.70213 -12.06251,16.29553 -12.0625,28.75 -1e-5,9.94139 2.87244,17.85457 8.625,23.71875 5.80839,5.86433 14.9583,10.13175 27.46875,12.8125 l 12.5,2.75 c 7.59554,1.67555 12.64292,3.56525 15.15625,5.6875 2.56902,2.12234 3.84368,5.15303 3.84375,9.0625 -7e-5,4.35634 -1.85187,7.71682 -5.59375,10.0625 -3.74204,2.34573 -9.15044,3.50002 -16.1875,3.5 -6.92546,2e-5 -14.10989,-1.06517 -21.59375,-3.1875 -7.4281,-2.17812 -15.13846,-5.38035 -23.125,-9.625 l 0,27.21875 c 7.98654,2.96006 15.95092,5.21081 23.9375,6.71875 7.98653,1.50797 15.97548,2.25 23.90625,2.25 16.81081,0 29.2833,-3.36048 37.4375,-10.0625 8.20986,-6.75784 12.31239,-17.01749 12.3125,-30.8125 -1.1e-4,-10.49977 -2.94835,-18.58449 -8.8125,-24.28125 -5.86436,-5.69664 -15.74965,-9.95741 -29.65625,-12.75 l -13.71875,-2.75 c -6.5345,-1.34032 -11.08054,-2.93812 -13.59375,-4.78125 -2.45745,-1.89882 -3.65629,-4.52391 -3.65625,-7.875 -4e-5,-4.4679 1.81386,-7.78385 5.5,-9.90625 3.68606,-2.1222 9.38639,-3.15616 17.09375,-3.15625 5.80836,9e-5 11.99671,0.78005 18.53125,2.34375 6.53438,1.5639 13.22409,3.86586 20.09375,6.9375 l 0,-26.46875 c -7.76327,-2.06633 -15.27082,-3.58833 -22.53125,-4.59375 -7.26058,-1.06102 -14.318,-1.59361 -21.1875,-1.59375 z"
     id="path3008"
     inkscape:connector-curvature="0" />
</svg>

<svg width="1060" height="1060" viewBox="0 0 1060 1060" fill="none" xmlns="http://www.w3.org/2000/svg">
<path opacity="0.873134" d="M229.094 237.344C208.097 237.344 186.231 242.073 168.656 256.719C151.18 271.282 142.125 295.237 142.125 316.344C142.125 327.136 144.553 338.85 149.531 349.531C145.415 355.982 143.225 363.473 143.219 371.125V398.344C143.223 406.554 145.741 414.567 150.434 421.304C155.126 428.041 161.769 433.181 169.469 436.031C179.395 439.71 189.541 442.605 199.906 444.562C210.314 446.528 220.811 447.531 231.25 447.531C249.439 447.531 267.6 444.776 283.844 435.375C284.36 435.605 284.881 435.824 285.406 436.031C295.333 439.71 305.478 442.605 315.844 444.562C326.271 446.531 336.78 447.531 347.219 447.531C369.388 447.531 391.59 443.598 410.188 428.312C410.198 428.302 410.208 428.292 410.219 428.281C428.771 413.01 437.187 388.204 437.187 366.438C437.187 353.07 433.688 338.16 425.906 325.531C427.918 320.676 428.958 315.474 428.969 310.219V283.75C428.965 274.888 426.035 266.276 420.632 259.251C415.229 252.227 407.658 247.184 399.094 244.906C389.953 242.473 380.921 240.651 372.031 239.406V239.375C371.927 239.36 371.823 239.359 371.719 239.344C362.779 238.052 353.875 237.344 345.031 237.344C327.786 237.344 309.993 240.627 294.437 249.875C290.955 247.649 287.15 245.973 283.156 244.906C274.016 242.474 264.984 240.651 256.094 239.406V239.375C255.989 239.36 255.886 239.359 255.781 239.344C246.842 238.052 237.938 237.344 229.094 237.344L229.094 237.344ZM225.094 395.844C226.599 396.569 226.808 397.001 225.094 395.844V395.844ZM341.031 395.844C342.536 396.569 342.745 397.001 341.031 395.844V395.844Z" fill="#ACD8F3"/>
<path d="M229.095 277.578C214.016 277.578 202.45 280.907 194.408 287.609C186.365 294.312 182.345 303.905 182.345 316.359C182.345 326.301 185.218 334.214 190.97 340.078C196.779 345.942 205.928 350.21 218.439 352.891L230.939 355.641C238.535 357.316 243.582 359.206 246.095 361.328C248.664 363.45 249.939 366.481 249.939 370.391C249.939 374.747 248.056 378.107 244.314 380.453C240.572 382.799 235.195 383.953 228.158 383.953C221.232 383.953 214.017 382.888 206.533 380.766C199.105 378.588 191.426 375.385 183.439 371.141V398.359C191.426 401.319 199.39 403.57 207.376 405.078C215.363 406.586 223.321 407.328 231.251 407.328C248.062 407.328 260.566 403.968 268.72 397.266C276.93 390.508 281.033 380.248 281.033 366.453C281.033 355.953 278.084 347.869 272.22 342.172C266.356 336.475 256.471 332.214 242.564 329.422L228.845 326.672C222.311 325.332 217.765 323.734 215.251 321.891C212.794 319.992 211.564 317.367 211.564 314.016C211.564 309.548 213.409 306.232 217.095 304.109C220.781 301.987 226.482 300.953 234.189 300.953C239.997 300.953 246.186 301.733 252.72 303.297C259.255 304.861 265.944 307.163 272.814 310.234V283.766C265.051 281.699 257.543 280.177 250.283 279.172C243.022 278.111 235.965 277.578 229.095 277.578V277.578ZM345.033 277.578C329.953 277.578 318.388 280.907 310.345 287.609C302.303 294.312 298.283 303.905 298.283 316.359C298.283 326.301 301.155 334.214 306.908 340.078C312.716 345.942 321.866 350.21 334.376 352.891L346.876 355.641C354.472 357.316 359.519 359.206 362.033 361.328C364.602 363.45 365.876 366.481 365.876 370.391C365.876 374.747 364.025 378.107 360.283 380.453C356.541 382.799 351.132 383.953 344.095 383.953C337.17 383.953 329.985 382.888 322.501 380.766C315.073 378.588 307.363 375.385 299.376 371.141V398.359C307.363 401.319 315.327 403.57 323.314 405.078C331.3 406.586 339.289 407.328 347.22 407.328C364.031 407.328 376.503 403.968 384.658 397.266C392.868 390.508 396.97 380.248 396.97 366.453C396.97 355.953 394.022 347.869 388.158 342.172C382.293 336.475 372.408 332.214 358.501 329.422L344.783 326.672C338.248 325.332 333.702 323.734 331.189 321.891C328.731 319.992 327.533 317.367 327.533 314.016C327.533 309.548 329.347 306.232 333.033 304.109C336.719 301.987 342.419 300.953 350.126 300.953C355.935 300.953 362.123 301.733 368.658 303.297C375.192 304.861 381.882 307.163 388.751 310.234V283.766C380.988 281.699 373.481 280.177 366.22 279.172C358.96 278.111 351.902 277.578 345.033 277.578Z" fill="black"/>
</svg>
